X: 41640
T: Up The Southern Shore
R: jig
M: 6/8
K: Dmajor
|:d2e f2g|~a3 a2f|d2e f2g|a3 afa|
b2b a2a|g2g f2e|d2B BAB|g3 f2e:|
|:d2B Bcd|~A3 AFA|~B3 BAB|g3 f2e|
d2B Bcd|~A3 AFA|Bcd efe|1 d2e f2e:|2 d3 ABc||

